X:2
T:Miss Susan Elliot
R:reel
C:Duncan MacIntyre (18th century)
B:The Glen Collection Vol 2, 1895
D:Kinnon & Betty Beaton, Cape Breton Fiddle Compilation
Z:Paul Stewart Cranford (P.S.C.), <http://www.cranfordpub.com>
L:1/8
M:C|
Q:333
K:G
d|g2 bg afge|dBgB aAAd|g2 bg afge|dBAB G/G/G G:|
|:E|DGB,D G,B,DG|BdgB A/A/A Af|gdbg afge|dBAB G/G/G G:|
